_inc/images/systems/logos/tg16.svg

<svg viewBox="0 0 264 57" xmlns="http://www.w3.org/2000/svg">
    <path style="fill:#fff;fill-opacity:1" d="M0 0h13.076v3.867H9.249v52.496H4.624V3.867H0zm24.922 52.521h5.104V15.742h4.464v36.779c0 2.381-2.151 4.066-4.358 4.066h-5.21c-2.332 0-4.412-1.906-4.412-4.114V15.742h4.412v36.779Zm96.001-27.796h6.817v31.9h-9.608c-2.054 0-4.584-1.582-4.584-3.979V4.426c0-2.026 2.112-4.183 4.484-4.183h5.243c2.326 0 4.435 2.138 4.435 4.137v11.423h-4.595V4.539h-5.222v48.143h5.342V28.629h-2.312v-3.904Zm65.928 12.322v19.335h-4.304v-37.03c0-1.673 1.655-3.496 3.747-3.496h7.097v3.569h-6.54v13.682h5.385v3.958l-5.385-.018Zm15.27-21.181h4.518v14.749l2.552 2.578 2.497-2.506V15.866h4.465v14.033c0 1.713-4.41 6.228-4.41 6.228s4.464 4.512 4.464 6.34v13.997h-4.2V41.891l-2.71-2.755-2.712 2.719v14.609h-4.464V42.5c0-1.717 4.728-6.409 4.728-6.409s-4.728-4.463-4.728-6.262V15.866ZM53.839 37.139c1.514 0 3.528-1.82 3.528-4.256v-13.31c0-1.914-2.173-3.697-4.645-3.697h-9.169v40.669h4.227V37.437h1.595l4.703 19.036h4.146l-4.385-19.334Zm-.837-3.978h-5.064V19.816h5.064v13.345Zm94.361 3.872c1.516 0 3.531-1.823 3.531-4.258V19.466c0-1.915-2.175-3.701-4.645-3.701h-9.168v40.674h4.222v-19.11h1.596l4.706 19.034h4.145l-4.387-19.33Zm-.897-4.023h-5.06V19.665h5.06V33.01ZM79.96 38.097c-.018-1.823-1.911-2.975-1.911-2.975s1.911-1.244 1.911-2.974V19.732c0-2.343-2.052-3.867-4.144-3.867h-9.648v40.599h9.648c1.953 0 4.144-1.226 4.144-3.866 0 0 .023-12.681 0-14.501Zm-4.344 14.389h-5.062V37.354h5.062v15.132Zm0-19.334h-5.062V19.807h5.062v13.345Zm22.823-17.587h-5.024c-2.532 0-4.374 2.175-4.374 3.829v32.973c0 2.131 2.361 4.064 4.354 4.064h5.462c2.134 0 4.265-2.213 4.265-3.979V19.283c0-1.486-2.013-3.718-4.683-3.718Zm.158 36.675h-4.89V19.581h4.89V52.24Zm70.763-36.384h-5.578c-2.514 0-3.988 2.081-3.988 3.717v36.809h4.225V37.047h5.341v19.335h4.227V19.796c-.002-2.428-1.673-3.94-4.227-3.94Zm-.121 17.177h-5.06V19.946h5.06v13.087Zm72.398 4.383h13.083v4.905h-13.083z"/>
    <path d="M243.251 15.292c-11.459 0-20.745 9.336-20.745 20.853 0 11.518 9.286 20.855 20.745 20.855C254.709 57 264 47.663 264 36.145c0-11.517-9.29-20.853-20.749-20.853Zm-7.061 29.421h-6.579v-2.316h2.122V30.159h-2.082v-2.392h4.46v14.591h2.079v2.355Zm20.797-12.501h-2.115v-2.129h-13.35v5.092h14.257l1.208 1.218v6.728l-1.512 1.519H240.88l-1.513-1.519V29.249l1.402-1.408h14.935l1.283 1.293v3.078Z" style="fill:#fff;fill-opacity:1"/>
</svg>

<?xml version="1.0" encoding="utf-8"?>
<svg version="1.1" viewBox="0 0 264 57" xmlns="http://www.w3.org/2000/svg">
  <polygon points="0 0 13.076 0 13.076 3.867 9.249 3.867 9.249 56.363 4.624 56.363 4.624 3.867 0 3.867" id="polygon5" style="fill:#ffffff;fill-opacity:1"/>
  <path d="M 24.922 52.521 L 30.026 52.521 L 30.026 15.742 L 34.49 15.742 L 34.49 52.521 C 34.49 54.902 32.339 56.587 30.132 56.587 L 24.922 56.587 C 22.59 56.587 20.51 54.681 20.51 52.473 L 20.51 15.742 L 24.922 15.742 L 24.922 52.521 Z" id="path7" style="fill:#ffffff;fill-opacity:1"/>
  <path d="M 120.923 24.725 L 127.74 24.725 L 127.74 56.625 L 118.132 56.625 C 116.078 56.625 113.548 55.043 113.548 52.646 L 113.548 4.426 C 113.548 2.4 115.66 0.243 118.032 0.243 L 123.275 0.243 C 125.601 0.243 127.71 2.381 127.71 4.38 L 127.71 15.803 L 123.115 15.803 L 123.115 4.539 L 117.893 4.539 L 117.893 52.682 L 123.235 52.682 L 123.235 28.629 L 120.923 28.629 L 120.923 24.725 Z" id="path9" style="fill:#ffffff;fill-opacity:1"/>
  <path d="M 186.851 37.047 L 186.851 56.382 L 182.547 56.382 L 182.547 19.352 C 182.547 17.679 184.202 15.856 186.294 15.856 L 193.391 15.856 L 193.391 19.425 L 186.851 19.425 L 186.851 33.107 L 192.236 33.107 L 192.236 37.065 L 186.851 37.047 Z" id="path11" style="fill:#ffffff;fill-opacity:1"/>
  <path d="M 202.121 15.866 L 206.639 15.866 L 206.639 30.615 L 209.191 33.193 L 211.688 30.687 L 211.688 15.866 L 216.153 15.866 L 216.153 29.899 C 216.153 31.612 211.743 36.127 211.743 36.127 C 211.743 36.127 216.207 40.639 216.207 42.467 L 216.207 56.464 L 212.007 56.464 L 212.007 41.891 L 209.297 39.136 L 206.585 41.855 L 206.585 56.464 L 202.121 56.464 L 202.121 42.5 C 202.121 40.783 206.849 36.091 206.849 36.091 C 206.849 36.091 202.121 31.628 202.121 29.829 L 202.121 15.866 Z" id="path13" style="fill:#ffffff;fill-opacity:1"/>
  <path d="M 53.839 37.139 C 55.353 37.139 57.367 35.319 57.367 32.883 L 57.367 19.573 C 57.367 17.659 55.194 15.876 52.722 15.876 L 43.553 15.876 L 43.553 56.545 L 47.78 56.545 L 47.78 37.437 L 49.375 37.437 L 54.078 56.473 L 58.224 56.473 L 53.839 37.139 Z M 53.002 33.161 L 47.938 33.161 L 47.938 19.816 L 53.002 19.816 L 53.002 33.161 Z" id="path15" style="fill:#ffffff;fill-opacity:1"/>
  <path d="M 147.363 37.033 C 148.879 37.033 150.894 35.21 150.894 32.775 L 150.894 19.466 C 150.894 17.551 148.719 15.765 146.249 15.765 L 137.081 15.765 L 137.081 56.439 L 141.303 56.439 L 141.303 37.329 L 142.899 37.329 L 147.605 56.363 L 151.75 56.363 L 147.363 37.033 Z M 146.466 33.01 L 141.406 33.01 L 141.406 19.665 L 146.466 19.665 L 146.466 33.01 Z" id="path17" style="fill:#ffffff;fill-opacity:1"/>
  <path d="M 79.96 38.097 C 79.942 36.274 78.049 35.122 78.049 35.122 C 78.049 35.122 79.96 33.878 79.96 32.148 L 79.96 19.732 C 79.96 17.389 77.908 15.865 75.816 15.865 L 66.168 15.865 L 66.168 56.464 L 75.816 56.464 C 77.769 56.464 79.96 55.238 79.96 52.598 C 79.96 52.598 79.983 39.917 79.96 38.097 Z M 75.616 52.486 L 70.554 52.486 L 70.554 37.354 L 75.616 37.354 L 75.616 52.486 Z M 75.616 33.152 L 70.554 33.152 L 70.554 19.807 L 75.616 19.807 L 75.616 33.152 Z" id="path19" style="fill:#ffffff;fill-opacity:1"/>
  <path d="M 98.439 15.565 L 95.887 15.565 L 93.415 15.565 C 90.883 15.565 89.041 17.74 89.041 19.394 L 89.041 52.367 C 89.041 54.498 91.402 56.431 93.395 56.431 L 98.857 56.431 C 100.991 56.431 103.122 54.218 103.122 52.452 L 103.122 19.283 C 103.122 17.797 101.109 15.565 98.439 15.565 Z M 98.597 52.24 L 93.707 52.24 L 93.707 19.581 L 98.597 19.581 L 98.597 52.24 Z" id="path21" style="fill:#ffffff;fill-opacity:1"/>
  <path d="M 169.36 15.856 L 163.782 15.856 C 161.268 15.856 159.794 17.937 159.794 19.573 L 159.794 56.382 L 164.019 56.382 L 164.019 37.047 L 169.36 37.047 L 169.36 56.382 L 173.587 56.382 L 173.587 19.796 C 173.585 17.368 171.914 15.856 169.36 15.856 Z M 169.239 33.033 L 164.179 33.033 L 164.179 19.946 L 169.239 19.946 L 169.239 33.033 Z" id="path23" style="fill:#ffffff;fill-opacity:1"/>
  <rect x="241.637" y="37.416" width="13.083" height="4.905" id="rect29" style="fill:#ffffff;fill-opacity:1"/>
  <path d="M 243.251 15.292 C 231.792 15.292 222.506 24.628 222.506 36.145 C 222.506 47.663 231.792 57 243.251 57 C 254.709 57 264 47.663 264 36.145 C 264 24.628 254.71 15.292 243.251 15.292 Z M 236.19 44.713 L 229.611 44.713 L 229.611 42.397 L 231.733 42.397 L 231.733 30.159 L 229.651 30.159 L 229.651 27.767 L 234.111 27.767 L 234.111 42.358 L 236.19 42.358 L 236.19 44.713 L 236.19 44.713 Z M 256.987 32.212 L 254.872 32.212 L 254.872 30.083 L 241.522 30.083 L 241.522 35.175 L 255.779 35.175 L 256.987 36.393 L 256.987 43.121 L 255.475 44.64 L 240.88 44.64 L 239.367 43.121 L 239.367 29.249 L 240.769 27.841 L 255.704 27.841 L 256.987 29.134 L 256.987 32.212 Z" id="path31" style="fill:#ffffff;fill-opacity:1"/>
</svg>
